X: 1
T: Vals
R: Vals
C: Jon Magnusson 2008-08-04
Z: Transcribed to abcby Jon Magnusson 080812
M: 3/4
L: 1/8
K: Gm
Q:150
D2|:"Gm" G^F GA BG|"D" AD D=E ^FD|"Gm" G^F GA Bc|"D" d4 A2|
"Bb" B2dc BA|"Gm" BG GA BG|[1 "D"AB AG ^FG|"D" A4 D2:|[2 "D" A2 AG ^FA|"Gm" G6|]
|:"F" A2 F=E F2|"Bb" DF Bd fd|"Cm" e2 cd ec|"Dm" d4 A2|"Bb" B2 dc BA|"Gm" BG GA BG|"D" AB AG ^FG|A4 D2|"Cm" C2 CD EF|G4 E2|"D" D2 D=E ^FG|A4 "Bb" B2|"F" A2 Ac BA|"Gm" G6:|

